icons/svg/bullhorn.svg

﻿<?xml version="1.0" encoding="utf-8"?>
<!DOCTYPE svg PUBLIC "-//W3C//DTD SVG 1.1//EN" "http://www.w3.org/Graphics/SVG/1.1/DTD/svg11.dtd">
<svg xmlns="http://www.w3.org/2000/svg" xmlns:xlink="http://www.w3.org/1999/xlink" version="1.1" baseProfile="full" width="24" height="24" viewBox="0 0 24.00 24.00" enable-background="new 0 0 24.00 24.00" xml:space="preserve">
	<path fill="#000000" fill-opacity="1" stroke-linejoin="round" d="M 16,12L 16,16C 16,16.5523 15.5523,17 15,17C 14.8333,17 14.6667,17 14.0556,16.5C 13.4444,16 12.3889,15 11.3056,14.5C 10.3062,14.0387 9.28314,14.003 8.25828,14.0002L 9.46586,17.318L 9.5,17.5C 9.5,17.7761 9.27614,18 9,18L 7,18C 6.77985,18 6.59294,17.8577 6.52618,17.6601L 5.19402,14L 5,14C 4.44771,14 4,13.5523 4,13C 2.89543,13 2,12.1046 2,11C 2,9.89543 2.89543,9 4,9C 4,8.44772 4.44771,8 5,8L 8,8C 9.11111,8 10.2222,8 11.3056,7.5C 12.3889,7 13.4444,6 14.0556,5.5C 14.6667,5 14.8333,5.00001 15,5.00001C 15.5523,5.00001 16,5.44772 16,6.00001L 16,10C 16.5523,10 17,10.4477 17,11C 17,11.5523 16.5523,12 16,12 Z M 21,11C 21,12.3807 20.4403,13.6307 19.5355,14.5355L 18.1213,13.1213C 18.6642,12.5784 19,11.8284 19,11C 19,10.1716 18.6642,9.42158 18.1213,8.87869L 19.5355,7.46447C 20.4403,8.36929 21,9.61929 21,11 Z "/>
</svg>

<svg xmlns="http://www.w3.org/2000/svg" version="1.1" baseProfile="full" width="24" height="24" viewBox="0 0 24.00 24.00" xml:space="preserve"><path fill="#000" fill-opacity="1" stroke-linejoin="round" d="M16 12v4c0 .552-.448 1-1 1-.167 0-.333 0-.944-.5-.612-.5-1.667-1.5-2.75-2-1-.46-2.023-.497-3.048-.5l1.208 3.318.034.182c0 .276-.224.5-.5.5H7c-.22 0-.407-.142-.474-.34L5.194 14H5c-.552 0-1-.448-1-1-1.105 0-2-.895-2-2s.895-2 2-2c0-.552.448-1 1-1h3c1.11 0 2.222 0 3.306-.5 1.083-.5 2.138-1.5 2.75-2 .61-.5.777-.5.944-.5.552 0 1 .448 1 1v4c.552 0 1 .448 1 1s-.448 1-1 1zm5-1c0 1.38-.56 2.63-1.465 3.536L18.12 13.12c.544-.542.88-1.292.88-2.12 0-.828-.336-1.578-.88-2.12l1.415-1.416C20.44 8.37 21 9.62 21 11z"/></svg>
